X:0289
M:6/8
L:1/8
Q:3/8=120
K:Bb
  FDE F2B | FDE F2f/e/|dcB  FGA|B3  B,2:|
f|fdB fg_a|_a3  g2g   |g=ec gab|b3  a3  |
  fbf dfd | ege cfc   |dcB  FGA|B3  B,2:|

